assets/images/ios-mask-border-128.svg

<svg 
  xmlns="http://www.w3.org/2000/svg" width="128" height="128" viewBox="0 0 128 128">
  <path fill="#000000" fill-opacity=".25" d="M127,39.9936461 C127,38.7903132 126.999787,38.3094169 126.998932,37.6973952 C126.997734,36.8388463 126.995351,36.1003538 126.991475,35.4054672 C126.981224,33.8601157 126.963823,32.677907 126.934135,31.5590525 C126.842336,28.1100023 126.62904,25.6316105 126.211869,23.3040467 C125.702647,20.467873 124.882229,17.9719263 123.67673,15.6063079 C122.449414,13.1946317 120.846538,10.988199 118.929595,9.07125611 C117.008368,7.15208352 114.800864,5.54829403 112.393472,4.32315813 C110.029946,3.11969309 107.533677,2.29938669 104.699889,1.79020716 C102.380337,1.37300875 99.9240214,1.16116032 96.4432266,1.06586816 C95.3211569,1.03614446 94.1392318,1.01875508 92.5957107,1.00853247 C91.3739238,1.00170685 90.4127212,1 88.0063539,1 L39.9936461,1 C38.7914672,1 38.3105842,1.00021354 37.6987327,1.00106728 C36.8398451,1.00226573 36.1014799,1.0046495 35.4075926,1.00852536 C33.8609053,1.01876832 32.6783776,1.03616423 31.5599074,1.06584132 C28.0764833,1.16120502 25.6195193,1.37309842 23.3020554,1.79024189 C20.4684547,2.29938771 17.972187,3.11969553 15.6084455,4.32327006 C13.198022,5.5499487 10.9891976,7.15460093 9.07296805,9.07083054 C7.15559944,10.9881991 5.55272367,13.1946317 4.32512961,15.6068537 C3.11990733,17.9719299 2.29948942,20.4678775 1.79032869,23.3037091 C1.37309807,25.6316053 1.15980193,28.1099945 1.06800435,31.5589604 C1.03626554,32.7551171 1.01757134,34.0171587 1.01066018,35.40585 C1.00580909,36.1014959 1.00283141,36.8396036 1.00133423,37.6977877 C1.00026681,38.3096356 1,38.7904043 1,39.9936461 L1,88.0063539 C1,89.2095957 1.00026681,89.6903644 1.00133423,90.3022123 C1.00283145,91.1604211 1.00580925,91.8985268 1.01067362,92.5963985 C1.01757146,93.9828664 1.03626613,95.2449054 1.06800191,96.4409474 C1.15980173,99.8899982 1.37309711,102.368389 1.79026812,104.695953 C2.29978232,107.533754 3.12050319,110.031377 4.32523242,112.395485 C5.55366766,114.807314 7.15712905,117.013242 9.07381859,118.927883 C10.9848748,120.843032 13.1921157,122.447046 15.6086654,123.676842 C17.9721849,124.880303 20.4684522,125.700612 23.3015717,126.209671 C25.634231,126.627756 28.1247436,126.842728 31.5589605,126.934133 C32.6783608,126.963835 33.8608934,126.981232 35.406427,126.991467 C36.1014817,126.99535 36.839851,126.997734 37.6987328,126.998933 C38.3105819,126.999786 38.7914611,127 39.9936461,127 L88.0063539,127 C90.4127064,127 91.3739128,126.998293 92.5945452,126.991474 C94.1391975,126.981245 95.3211377,126.963856 96.4430851,126.934135 C99.8757779,126.842771 102.365579,126.627851 104.700082,126.209758 C107.533683,125.700612 110.029951,124.880304 112.393692,123.67673 C114.806788,122.448691 117.012749,120.845502 118.929595,118.926606 C120.845028,117.013222 122.448482,114.807289 123.677008,112.395283 C124.881634,110.031378 125.702355,107.533755 126.211809,104.696291 C126.62904,102.368395 126.842336,99.8900051 126.934133,96.4410394 C126.963823,95.3221066 126.981224,94.1399023 126.991467,92.5957193 C126.995351,91.8996636 126.997734,91.1611743 126.998932,90.3026049 C126.999787,89.6905831 127,89.2096868 127,88.0063539 L127,39.9936461 Z M128,39.9936461 L128,88.0063539 C128,89.1554735 127.999822,89.6659132 127.998931,90.3040005 C127.997756,91.1460799 127.995421,91.8898789 127.991452,92.6012982 C127.981474,94.1054715 127.964523,95.3089713 127.933781,96.4675642 C127.843948,99.8427421 127.637087,102.412401 127.196124,104.872711 C126.673906,107.781265 125.828126,110.376487 124.567991,112.849321 C123.291747,115.355013 121.626035,117.646508 119.636324,119.634091 C117.646069,121.626474 115.354471,123.292017 112.847244,124.56796 C110.37524,125.82666 107.781617,126.672078 104.876932,127.193996 C102.410492,127.635718 99.8308717,127.84432 96.4696916,127.933781 C95.3082189,127.964549 94.1052761,127.981492 92.6011674,127.991453 C91.326228,127.998575 90.3050105,128 88.0063539,128 L39.9936461,128 C38.8457296,128 38.3352904,127.999822 37.6973374,127.998932 C36.8549528,127.997756 36.1112445,127.995421 35.4008405,127.991452 C33.8951818,127.981481 32.6913911,127.964533 31.5324358,127.933781 C28.1699214,127.844285 25.5893357,127.635644 23.1251521,127.193986 C20.2205207,126.672078 17.6268978,125.82666 15.1549179,124.567972 C12.6450061,123.290663 10.3518444,121.624374 8.36595593,119.634233 C6.37610253,117.646508 4.71039048,115.355013 3.43415827,112.849343 C2.17401191,110.376487 1.32823129,107.781265 0.806006887,104.872673 C0.365050469,102.412401 0.158189852,99.8427431 0.0683559222,96.4675539 C0.0359657484,95.2468493 0.0175170475,93.974416 0.0106859908,92.6013736 C0.00572374719,91.8897522 0.00280476556,91.1459955 0.00133575189,90.3039569 C0.000222584235,89.6658889 0,89.155459 0,88.0063539 L0,39.9936461 C0,38.844541 0.000222584235,38.3341111 0.00133575189,37.6960431 C0.00280476556,36.8540045 0.00572374719,36.1102478 0.0106844957,35.3988767 C0.0175170475,34.025584 0.0359657484,32.7531507 0.0683561947,31.5324358 C0.158189852,28.1572569 0.365050472,25.587599 0.806013628,23.1272896 C1.3279985,20.2200321 2.17354841,17.6265606 3.43414682,15.1528166 C4.70949719,12.6467532 6.37469813,10.3548868 8.36586127,8.36372375 C10.3556876,6.37389742 12.6498948,4.70684874 15.1548934,3.43204028 C17.6268979,2.17334017 20.2205208,1.32792237 23.125206,0.806003966 C25.576843,0.36470929 28.1279236,0.159422104 31.5325412,0.0662158458 C32.6913849,0.0354671347 33.895165,0.0185195057 35.4009703,0.00854728617 C36.1112445,0.00457934077 36.8549528,0.00224367468 37.6973374,0.00106825644 C38.3352904,0.000178090834 38.8457296,0 39.9936461,0 L88.0063539,0 C90.3050105,0 91.326228,0.00142478879 92.6012972,0.00854807822 C94.1052929,0.0185083844 95.3082249,0.0354510907 96.4697074,0.0662188324 C99.8728349,0.159384348 102.42301,0.364637655 104.87691,0.806000101 C107.781617,1.3279224 110.37524,2.17334024 112.84722,3.43202783 C115.349587,4.70549692 117.642192,6.37177197 119.636324,8.36377112 C121.627439,10.3548869 123.29264,12.6467533 124.56796,15.1527559 C125.828589,17.6265604 126.674139,20.2200318 127.196131,23.1273271 C127.637087,25.5875993 127.843948,28.1572579 127.933781,31.5324461 C127.964523,32.6910287 127.981474,33.8945285 127.991453,35.3988341 C127.995421,36.1101211 127.997756,36.8539201 127.998931,37.6959995 C127.999822,38.3340868 128,38.8445265 128,39.9936461 Z"/>
</svg>

<svg xmlns="http://www.w3.org/2000/svg" width="128" height="128"><path fill-opacity=".25" d="M127 39.994l-.001-2.297c-.001-.858-.004-1.597-.008-2.292-.01-1.545-.027-2.727-.057-3.846-.092-3.449-.305-5.927-.722-8.255-.51-2.836-1.33-5.332-2.535-7.698a25.783 25.783 0 00-11.284-11.283C110.03 3.12 107.533 2.3 104.7 1.79c-2.32-.417-4.776-.629-8.257-.724-1.122-.03-2.304-.047-3.847-.057A748.527 748.527 0 0088.006 1H39.994l-2.295.001c-.86.001-1.598.004-2.291.008-1.547.01-2.73.027-3.848.057-3.484.095-5.94.307-8.258.724-2.834.51-5.33 1.33-7.694 2.533A25.798 25.798 0 004.325 15.607C3.12 17.972 2.3 20.467 1.79 23.304c-.417 2.328-.63 4.806-.722 8.255a177.91 177.91 0 00-.057 3.847A434.86 434.86 0 001 37.698v50.308l.001 2.296c.002.858.005 1.597.01 2.294.007 1.387.025 2.649.057 3.845.092 3.449.305 5.927.722 8.255.51 2.838 1.33 5.335 2.535 7.7a25.765 25.765 0 004.749 6.532 25.703 25.703 0 006.535 4.749c2.363 1.203 4.86 2.024 7.693 2.533 2.332.418 4.823.633 8.257.724 1.12.03 2.302.047 3.847.057.695.004 1.434.007 2.293.008l2.295.001h48.012c2.407 0 3.368-.002 4.589-.009 1.544-.01 2.726-.027 3.848-.057 3.433-.091 5.923-.306 8.257-.724 2.834-.51 5.33-1.33 7.694-2.533a25.742 25.742 0 006.536-4.75 25.762 25.762 0 004.747-6.532c1.205-2.364 2.025-4.861 2.535-7.699.417-2.328.63-4.806.722-8.255.03-1.119.047-2.301.057-3.845.004-.696.007-1.435.008-2.293l.001-2.297V39.994zm1 0v48.012l-.001 2.298c-.001.842-.004 1.586-.008 2.297a190.3 190.3 0 01-.057 3.867c-.09 3.375-.297 5.944-.738 8.405-.522 2.908-1.368 5.503-2.628 7.976a26.762 26.762 0 01-4.932 6.785 26.74 26.74 0 01-6.789 4.934c-2.472 1.259-5.065 2.104-7.97 2.626-2.467.442-5.046.65-8.407.74-1.162.03-2.365.047-3.869.057a757.9 757.9 0 01-4.595.009H39.994l-2.297-.001a544.46 544.46 0 01-2.296-.008c-1.506-.01-2.71-.026-3.869-.057-3.362-.09-5.943-.298-8.407-.74-2.904-.522-5.498-1.367-7.97-2.626a26.703 26.703 0 01-6.789-4.934 26.762 26.762 0 01-4.932-6.785c-1.26-2.473-2.106-5.068-2.628-7.976-.44-2.46-.648-5.03-.738-8.405a182.89 182.89 0 01-.057-3.867c-.005-.711-.008-1.455-.01-2.297L0 88.006V39.994l.001-2.298c.002-.842.005-1.586.01-2.297.007-1.373.025-2.646.057-3.867.09-3.375.297-5.944.738-8.405.522-2.907 1.368-5.5 2.628-7.974a26.784 26.784 0 0111.72-11.721c2.473-1.259 5.067-2.104 7.971-2.626 2.452-.441 5.003-.647 8.408-.74A198.23 198.23 0 0135.4.01c.71-.004 1.454-.007 2.296-.008L39.994 0h48.012c2.299 0 3.32.001 4.595.009 1.504.01 2.707.026 3.869.057 3.403.093 5.953.299 8.407.74 2.905.522 5.498 1.367 7.97 2.626a26.784 26.784 0 0111.72 11.72c1.262 2.475 2.107 5.068 2.63 7.975.44 2.46.647 5.03.737 8.405.03 1.159.047 2.363.057 3.867.004.711.007 1.455.008 2.297l.001 2.298z"/></svg>
